src/icons/tokens/noIcon.svg

<svg width="32" height="32" viewBox="0 0 32 32" fill="none" xmlns="http://www.w3.org/2000/svg">
  <path
    d="M15 0.57735C15.6188 0.220085 16.3812 0.220085 17 0.57735L28.8564 7.42265C29.4752 7.77992 29.8564 8.44017 29.8564 9.1547V22.8453C29.8564 23.5598 29.4752 24.2201 28.8564 24.5774L17 31.4226C16.3812 31.7799 15.6188 31.7799 15 31.4226L3.14359 24.5774C2.52479 24.2201 2.14359 23.5598 2.14359 22.8453V9.1547C2.14359 8.44017 2.52479 7.77992 3.14359 7.42265L15 0.57735Z"
    fill="#F3F4FC"
  />
  <circle cx="16.0007" cy="16.0002" r="9.91667" stroke="black" stroke-width="1.5" />
  <path
    d="M16.1042 21.3332C15.8211 21.3332 15.5916 21.1037 15.5916 20.8205V20.2319C15.0669 20.1824 14.625 20.038 14.266 19.7988C14.0407 19.6434 13.8343 19.4653 13.6471 19.2644C13.451 19.0542 13.4733 18.731 13.6675 18.519C13.9278 18.2349 14.3809 18.2699 14.6722 18.522C14.7288 18.5709 14.7867 18.617 14.846 18.6603C15.0945 18.8336 15.3741 18.9449 15.6848 18.9944V16.4824C14.9254 16.2927 14.3765 16.004 14.0382 15.6162C13.7068 15.2203 13.5411 14.717 13.5411 14.1066C13.5411 13.4466 13.7206 12.9186 14.0796 12.5227C14.4386 12.1184 14.9426 11.8709 15.5916 11.7802V11.1791C15.5916 10.896 15.8211 10.6665 16.1042 10.6665C16.3873 10.6665 16.6168 10.896 16.6168 11.1791V11.7802C17.0518 11.8379 17.4246 11.9658 17.7353 12.1638C17.9248 12.282 18.0996 12.4266 18.2596 12.5976C18.4545 12.8059 18.4189 13.1304 18.2207 13.3355C17.9607 13.6044 17.5141 13.5672 17.2175 13.3394C17.0311 13.1909 16.7998 13.0836 16.5236 13.0176V15.3192C17.2624 15.5255 17.8043 15.8142 18.1495 16.1855C18.4947 16.5484 18.6673 17.0517 18.6673 17.6951C18.6673 18.3303 18.4947 18.8789 18.1495 19.3409C17.8043 19.7946 17.2934 20.0792 16.6168 20.1947V20.8205C16.6168 21.1037 16.3873 21.3332 16.1042 21.3332ZM14.7942 14.0447C14.7942 14.3334 14.8632 14.5562 15.0013 14.7129C15.1463 14.8696 15.3741 14.9975 15.6848 15.0965V13.0053C15.0911 13.129 14.7942 13.4755 14.7942 14.0447ZM17.4246 17.8065C17.4246 17.559 17.359 17.3445 17.2278 17.163C17.1036 16.9733 16.8688 16.8207 16.5236 16.7052V18.982C16.8136 18.9078 17.0345 18.7676 17.1864 18.5613C17.3452 18.3468 17.4246 18.0952 17.4246 17.8065Z"
    fill="#010014"
  />
</svg>

<svg
  xmlns="http://www.w3.org/2000/svg"
  width="32"
  height="32"
  fill="none"
  xmlns:v="https://vecta.io/nano"
>
  <path
    d="M15 .577a2 2 0 0 1 2 0l11.856 6.845a2 2 0 0 1 1 1.732v13.691a2 2 0 0 1-1 1.732L17 31.423a2 2 0 0 1-2 0L3.144 24.577a2 2 0 0 1-1-1.732V9.155a2 2 0 0 1 1-1.732L15 .577z"
    fill="#f3f4fc"
  />
  <circle cx="16.001" cy="16" r="9.917" stroke="#000" stroke-width="1.5" />
  <path
    d="M16.104 21.333c-.283 0-.513-.23-.513-.513v-.589c-.525-.049-.967-.194-1.326-.433-.225-.155-.432-.334-.619-.534-.196-.21-.174-.533.02-.745.26-.284.713-.249 1.005.003l.174.138c.248.173.528.285.839.334v-2.512c-.759-.19-1.308-.478-1.647-.866-.331-.396-.497-.899-.497-1.51 0-.66.179-1.188.538-1.584.359-.404.863-.652 1.512-.742v-.601c0-.283.229-.513.513-.513s.513.23.513.513v.601a2.72 2.72 0 0 1 1.118.384c.19.118.364.263.524.434.195.208.159.533-.039.738-.26.269-.707.232-1.003.004a1.75 1.75 0 0 0-.694-.322v2.302c.739.206 1.281.495 1.626.866.345.363.518.866.518 1.51 0 .635-.173 1.184-.518 1.646-.345.454-.856.738-1.533.854v.626c0 .283-.23.513-.513.513zm-1.31-7.289c0 .289.069.511.207.668.145.157.373.285.683.384v-2.091c-.594.124-.891.47-.891 1.039zm2.63 3.762a1.07 1.07 0 0 0-.197-.643c-.124-.19-.359-.342-.704-.458v2.277c.29-.074.511-.214.663-.421.159-.214.238-.466.238-.755z"
    fill="#010014"
  />
</svg>
